X:195
T:Tear the Calico
M:4/4
L:1/8
K:G
G4 G3 A|BAGA BAAB|G3 F GFGA| BAGE EDDE|
G3 F G3 A|BAGA BAAB|G3 F GFGA|BAGE ED D2||
|:BddB G3 A|BddB cAAG|BddB GGGA|BAGE EDDG :|
GEDE c3 A|B3 G AcBA|GEDE c3 A|BAGE EDDE :|
